actions/22/node-curve.svg

<?xml version="1.0" encoding="UTF-8" standalone="no"?>
<!-- Created with Inkscape (http://www.inkscape.org/) -->

<svg
   xmlns:dc="http://purl.org/dc/elements/1.1/"
   xmlns:cc="http://creativecommons.org/ns#"
   xmlns:rdf="http://www.w3.org/1999/02/22-rdf-syntax-ns#"
   xmlns:svg="http://www.w3.org/2000/svg"
   xmlns="http://www.w3.org/2000/svg"
   xmlns:xlink="http://www.w3.org/1999/xlink"
   xmlns:inkscape="http://www.inkscape.org/namespaces/inkscape"
   version="1.0"
   width="22"
   height="22"
   id="svg7903">
  <defs
     id="defs7905">
    <linearGradient
       x1="-8.6875"
       y1="410.10919"
       x2="-8.6875"
       y2="417.38632"
       id="linearGradient19069"
       xlink:href="#linearGradient8357"
       gradientUnits="userSpaceOnUse" />
    <linearGradient
       x1="12.197592"
       y1="401.09631"
       x2="15.698984"
       y2="404.59772"
       id="linearGradient19067"
       xlink:href="#linearGradient7430"
       gradientUnits="userSpaceOnUse"
       gradientTransform="matrix(1.166667,0,0,1.160582,-23.75,-54.04044)" />
    <linearGradient
       id="linearGradient8357">
      <stop
         id="stop8359"
         style="stop-color:#ffffff;stop-opacity:1"
         offset="0" />
      <stop
         id="stop8361"
         style="stop-color:#ffffff;stop-opacity:0"
         offset="1" />
    </linearGradient>
    <linearGradient
       x1="-8.6875"
       y1="410.10919"
       x2="-8.6875"
       y2="417.38632"
       id="linearGradient19065"
       xlink:href="#linearGradient8357"
       gradientUnits="userSpaceOnUse" />
    <linearGradient
       id="linearGradient7430">
      <stop
         id="stop7432"
         style="stop-color:#d3d7cf;stop-opacity:1"
         offset="0" />
      <stop
         id="stop7434"
         style="stop-color:#fafbfa;stop-opacity:1"
         offset="1" />
    </linearGradient>
    <linearGradient
       x1="12.197592"
       y1="401.09631"
       x2="15.698984"
       y2="404.59772"
       id="linearGradient19063"
       xlink:href="#linearGradient7430"
       gradientUnits="userSpaceOnUse"
       gradientTransform="matrix(1.166667,0,0,1.160582,-23.75,-54.04044)" />
    <linearGradient
       id="linearGradient11905">
      <stop
         id="stop11907"
         style="stop-color:#babdb6;stop-opacity:1"
         offset="0" />
      <stop
         id="stop11909"
         style="stop-color:#babdb6;stop-opacity:0"
         offset="1" />
    </linearGradient>
    <linearGradient
       x1="162.2023"
       y1="409.81949"
       x2="162.2023"
       y2="409.06992"
       id="linearGradient19952"
       xlink:href="#linearGradient11905"
       gradientUnits="userSpaceOnUse"
       gradientTransform="translate(-0.490834,0.796096)" />
    <linearGradient
       id="linearGradient11913">
      <stop
         id="stop11915"
         style="stop-color:#555753;stop-opacity:1"
         offset="0" />
      <stop
         id="stop11917"
         style="stop-color:#555753;stop-opacity:0"
         offset="1" />
    </linearGradient>
    <linearGradient
       x1="162.09949"
       y1="409.61749"
       x2="162.09949"
       y2="409.02002"
       id="linearGradient19950"
       xlink:href="#linearGradient11913"
       gradientUnits="userSpaceOnUse" />
  </defs>
  <metadata
     id="metadata7908">
    <rdf:RDF>
      <cc:Work
         rdf:about="">
        <dc:format>image/svg+xml</dc:format>
        <dc:type
           rdf:resource="http://purl.org/dc/dcmitype/StillImage" />
      </cc:Work>
    </rdf:RDF>
  </metadata>
  <g
     id="layer1">
    <g
       transform="matrix(1,0,0,1.005236,19.124901,-412.00671)"
       id="node_curve">
      <g
         transform="matrix(0,1.242086,-1.235753,0,502.4343,214.853)"
         id="g19944">
        <path
           d="M 161.03293,410.03293 C 161.03293,415.28367 163.63471,418 169,418"
           inkscape:connector-curvature="0"
           id="path19946"
           style="fill:none;stroke:url(#linearGradient19950);stroke-width:3.22021127;stroke-linecap:round;stroke-linejoin:miter;stroke-miterlimit:4;stroke-opacity:1;stroke-dasharray:none" />
        <path
           d="m 160.60422,409.51485 c 0,5.27607 1.89086,8.83969 8,8.83969"
           inkscape:connector-curvature="0"
           id="path19948"
           style="fill:none;stroke:url(#linearGradient19952);stroke-width:0.80505282px;stroke-linecap:round;stroke-linejoin:miter;stroke-opacity:1" />
      </g>
      <g
         transform="translate(5.875102,1.740965)"
         id="g19047">
        <path
           d="m -11.500002,409.61195 7.0000013,0 0,6.96349 -7.0000013,0 0,-6.96349 z"
           inkscape:connector-curvature="0"
           id="path19049"
           style="fill:url(#linearGradient19063);fill-opacity:1;stroke:#888a85;stroke-width:0.99739248;stroke-linecap:round;stroke-linejoin:round;stroke-miterlimit:4;stroke-opacity:1" />
        <path
           d="m -10.499999,410.60685 4.9999994,0 0,4.9739 -4.9999994,0 0,-4.9739 z"
           inkscape:connector-curvature="0"
           id="path19051"
           style="fill:none;stroke:url(#linearGradient19065);stroke-width:0.99739254;stroke-linecap:round;stroke-linejoin:miter;stroke-miterlimit:4;stroke-opacity:1" />
      </g>
      <g
         transform="translate(-6.124899,13.67841)"
         id="g19053">
        <path
           d="m -11.500002,409.61195 7.0000013,0 0,6.96349 -7.0000013,0 0,-6.96349 z"
           inkscape:connector-curvature="0"
           id="path19055"
           style="fill:url(#linearGradient19067);fill-opacity:1;stroke:#888a85;stroke-width:0.99739248;stroke-linecap:round;stroke-linejoin:round;stroke-miterlimit:4;stroke-opacity:1" />
        <path
           d="m -10.499999,410.60685 4.9999994,0 0,4.9739 -4.9999994,0 0,-4.9739 z"
           inkscape:connector-curvature="0"
           id="path19057"
           style="fill:none;stroke:url(#linearGradient19069);stroke-width:0.99739254;stroke-linecap:round;stroke-linejoin:miter;stroke-miterlimit:4;stroke-opacity:1" />
      </g>
    </g>
  </g>
</svg>

<?xml version="1.0" encoding="UTF-8" standalone="no"?>
<!-- Created with Inkscape (http://www.inkscape.org/) -->
<svg
   xmlns:dc="http://purl.org/dc/elements/1.1/"
   xmlns:cc="http://web.resource.org/cc/"
   xmlns:rdf="http://www.w3.org/1999/02/22-rdf-syntax-ns#"
   xmlns:svg="http://www.w3.org/2000/svg"
   xmlns="http://www.w3.org/2000/svg"
   xmlns:xlink="http://www.w3.org/1999/xlink"
   xmlns:sodipodi="http://sodipodi.sourceforge.net/DTD/sodipodi-0.dtd"
   xmlns:inkscape="http://www.inkscape.org/namespaces/inkscape"
   width="22"
   height="22"
   id="svg7903"
   sodipodi:version="0.32"
   inkscape:version="0.44+devel"
   version="1.0"
   sodipodi:docbase="/home/andreas/project/inkscape/22x22/actions"
   sodipodi:docname="node-curve.svg"
   inkscape:output_extension="org.inkscape.output.svg.inkscape"
   inkscape:export-filename="/home/andreas/project/inkscape/22x22/actions/node-curve.png"
   inkscape:export-xdpi="90"
   inkscape:export-ydpi="90"
   sodipodi:modified="true">
  <defs
     id="defs7905">
    <linearGradient
       inkscape:collect="always"
       xlink:href="#linearGradient8357"
       id="linearGradient19069"
       gradientUnits="userSpaceOnUse"
       x1="-8.6875"
       y1="410.10919"
       x2="-8.6875"
       y2="417.38632" />
    <linearGradient
       inkscape:collect="always"
       xlink:href="#linearGradient7430"
       id="linearGradient19067"
       gradientUnits="userSpaceOnUse"
       gradientTransform="matrix(1.166667,0,0,1.160582,-23.75,-54.04044)"
       x1="12.197592"
       y1="401.09631"
       x2="15.698984"
       y2="404.59772" />
    <linearGradient
       inkscape:collect="always"
       id="linearGradient8357">
      <stop
         style="stop-color:white;stop-opacity:1;"
         offset="0"
         id="stop8359" />
      <stop
         style="stop-color:white;stop-opacity:0;"
         offset="1"
         id="stop8361" />
    </linearGradient>
    <linearGradient
       inkscape:collect="always"
       xlink:href="#linearGradient8357"
       id="linearGradient19065"
       gradientUnits="userSpaceOnUse"
       x1="-8.6875"
       y1="410.10919"
       x2="-8.6875"
       y2="417.38632" />
    <linearGradient
       inkscape:collect="always"
       id="linearGradient7430">
      <stop
         style="stop-color:#d3d7cf;stop-opacity:1;"
         offset="0"
         id="stop7432" />
      <stop
         style="stop-color:#fafbfa;stop-opacity:1"
         offset="1"
         id="stop7434" />
    </linearGradient>
    <linearGradient
       inkscape:collect="always"
       xlink:href="#linearGradient7430"
       id="linearGradient19063"
       gradientUnits="userSpaceOnUse"
       gradientTransform="matrix(1.166667,0,0,1.160582,-23.75,-54.04044)"
       x1="12.197592"
       y1="401.09631"
       x2="15.698984"
       y2="404.59772" />
    <linearGradient
       inkscape:collect="always"
       id="linearGradient11905">
      <stop
         style="stop-color:#babdb6;stop-opacity:1;"
         offset="0"
         id="stop11907" />
      <stop
         style="stop-color:#babdb6;stop-opacity:0;"
         offset="1"
         id="stop11909" />
    </linearGradient>
    <linearGradient
       inkscape:collect="always"
       xlink:href="#linearGradient11905"
       id="linearGradient19952"
       gradientUnits="userSpaceOnUse"
       x1="162.2023"
       y1="409.81949"
       x2="162.2023"
       y2="409.06992"
       gradientTransform="translate(-0.490834,0.796096)" />
    <linearGradient
       inkscape:collect="always"
       id="linearGradient11913">
      <stop
         style="stop-color:#555753;stop-opacity:1;"
         offset="0"
         id="stop11915" />
      <stop
         style="stop-color:#555753;stop-opacity:0;"
         offset="1"
         id="stop11917" />
    </linearGradient>
    <linearGradient
       inkscape:collect="always"
       xlink:href="#linearGradient11913"
       id="linearGradient19950"
       gradientUnits="userSpaceOnUse"
       x1="162.09949"
       y1="409.61749"
       x2="162.09949"
       y2="409.02002" />
  </defs>
  <sodipodi:namedview
     id="base"
     pagecolor="#ffffff"
     bordercolor="#666666"
     borderopacity="1.0"
     inkscape:pageopacity="0.0"
     inkscape:pageshadow="2"
     inkscape:zoom="11.313708"
     inkscape:cx="6.9676993"
     inkscape:cy="12.386224"
     inkscape:current-layer="node_curve"
     showgrid="false"
     inkscape:grid-bbox="true"
     inkscape:document-units="px"
     width="22px"
     height="22px"
     inkscape:window-width="797"
     inkscape:window-height="628"
     inkscape:window-x="3"
     inkscape:window-y="72" />
  <metadata
     id="metadata7908">
    <rdf:RDF>
      <cc:Work
         rdf:about="">
        <dc:format>image/svg+xml</dc:format>
        <dc:type
           rdf:resource="http://purl.org/dc/dcmitype/StillImage" />
      </cc:Work>
    </rdf:RDF>
  </metadata>
  <g
     id="layer1"
     inkscape:label="Layer 1"
     inkscape:groupmode="layer">
    <g
       id="node_curve"
       transform="matrix(1,0,0,1.005236,19.124901,-412.00671)">
      <g
         id="g19944"
         transform="matrix(0,1.242086,-1.235753,0,502.4343,214.853)">
        <path
           sodipodi:nodetypes="cc"
           id="path19946"
           d="M 161.03293,410.03293 C 161.03293,415.28367 163.63471,418 169,418"
           style="fill:none;fill-opacity:1;fill-rule:evenodd;stroke:url(#linearGradient19950);stroke-width:3.22021127;stroke-linecap:round;stroke-linejoin:miter;stroke-miterlimit:4;stroke-dasharray:none;stroke-opacity:1" />
        <path
           sodipodi:nodetypes="cc"
           id="path19948"
           d="M 160.60422,409.51485 C 160.60422,414.79092 162.49508,418.35454 168.60422,418.35454"
           style="fill:none;fill-opacity:1;fill-rule:evenodd;stroke:url(#linearGradient19952);stroke-width:0.80505282px;stroke-linecap:round;stroke-linejoin:miter;stroke-opacity:1" />
      </g>
      <g
         id="g19047"
         transform="translate(5.875102,1.740965)">
        <path
           id="path19049"
           d="M -11.500002,409.61195 L -4.5000007,409.61195 L -4.5000007,416.57544 L -11.500002,416.57544 L -11.500002,409.61195 z "
           style="fill:url(#linearGradient19063);fill-opacity:1;stroke:#888a85;stroke-width:0.99739248;stroke-linecap:round;stroke-linejoin:round;stroke-miterlimit:4;stroke-opacity:1" />
        <path
           id="path19051"
           d="M -10.499999,410.60685 L -5.4999996,410.60685 L -5.4999996,415.58075 L -10.499999,415.58075 L -10.499999,410.60685 z "
           style="fill:none;fill-opacity:1;stroke:url(#linearGradient19065);stroke-width:0.99739254;stroke-linecap:round;stroke-linejoin:miter;stroke-miterlimit:4;stroke-opacity:1" />
      </g>
      <g
         id="g19053"
         transform="translate(-6.124899,13.67841)">
        <path
           id="path19055"
           d="M -11.500002,409.61195 L -4.5000007,409.61195 L -4.5000007,416.57544 L -11.500002,416.57544 L -11.500002,409.61195 z "
           style="fill:url(#linearGradient19067);fill-opacity:1;stroke:#888a85;stroke-width:0.99739248;stroke-linecap:round;stroke-linejoin:round;stroke-miterlimit:4;stroke-opacity:1" />
        <path
           id="path19057"
           d="M -10.499999,410.60685 L -5.4999996,410.60685 L -5.4999996,415.58075 L -10.499999,415.58075 L -10.499999,410.60685 z "
           style="fill:none;fill-opacity:1;stroke:url(#linearGradient19069);stroke-width:0.99739254;stroke-linecap:round;stroke-linejoin:miter;stroke-miterlimit:4;stroke-opacity:1" />
      </g>
    </g>
  </g>
</svg>
